X: 123
T: No_80_Manabus_and_the_Stone_(b).krn
N: Derived from No_80_Manabus_and_the_Stone_(b).krn
%%abc-version 2.0
%%abcx-abcm2ps-target-version 5.9.1 (29 Sep 2008)
%%abc-creator hum2abc beta
%%abcx-conversion-date 2019/03/15 08:35:45
%%humdrum-veritas 3727757803
%%humdrum-veritas-data 3693944557
%%linebreak <none>
%%barnumbers 0
L: 1/8
M: 2/4
K: E clef=bass
[K:clef=bass][M:2/4]z2z z/ G,/ | 
G,3/F,/ E,3/F,/ | 
E,4 | 
E,2E,3/C,/ | 
B,,4 | 
B,,2B,,3/A,,/ | 
A,,4 | 
A,,2A,,2 ||  
[M:3/4]A,,2A,,2z3/ F,/ ||  
[M:2/4]E,3/E,/ F,3/F,/ | 
E,4 | 
E,2E,2 | 
C,4 | 
C,2C,3/B,,/ | 
B,,4 ||  
[M:3/4]B,,2B,,2z3/ B,,/ ||  
[M:2/4]G,,3/B,,/ B,,3/C,/ | 
B,,4 | 
B,,2B,,2 | 
B,,2G,,2 | 
z4 | 
z2z z/ B,,/ | 
B,,F, F,F, | 
F,F, F,3/F,/ | 
F,4 | 
F,2F,3/D,/ | 
C,4 ||  
[M:3/4]C,2C, z/ F,/ F,3/F,/ ||  
[M:2/4]F,4 | 
F,2F,3/E,/ | 
E,4 | 
E,2E,3/C,/ | 
B,,4 ||  
[M:3/4]B,,2B,,2z3/ F,/ ||  
[M:2/4]E,3/E,/ F,3/F,/ | 
E,4 | 
E,2E,2 | 
C,4 | 
C,2C,3/B,,/ | 
B,,4 ||  
[M:3/4]B,,2B,,2z3/ B,,/ ||  
[M:2/4]G,,3/B,,/ B,,3/C,/ | 
B,,4 | 
B,,2B,,2 | 
B,,2G,,2 |]  



